lib/healthicons/icons/outline/shapes/information_campaign.svg

<svg fill="none" height="48" viewBox="0 0 48 48" width="48" xmlns="http://www.w3.org/2000/svg"><path clip-rule="evenodd" d="m38 24c0 7.732-6.268 14-14 14s-14-6.268-14-14 6.268-14 14-14 14 6.268 14 14zm2 0c0 8.8366-7.1634 16-16 16s-16-7.1634-16-16 7.1634-16 16-16 16 7.1634 16 16zm-8.7573 4.2426c-2.3432 2.3432-6.1422 2.3432-8.4853 0-2.3432-2.3431-2.3432-6.1421 0-8.4852 2.3431-2.3432 6.1421-2.3432 8.4853 0l1.4142-1.4143c-3.1242-3.1241-8.1895-3.1241-11.3137 0-3.1242 3.1242-3.1242 8.1896 0 11.3138 3.1242 3.1241 8.1895 3.1241 11.3137 0zm-16.2427-7.2426v10h2v-10zm2.5-2.5c0 .8284-.6716 1.5-1.5 1.5s-1.5-.6716-1.5-1.5.6716-1.5 1.5-1.5 1.5.6716 1.5 1.5z" fill="#333" fill-rule="evenodd"/></svg>

<svg width="48" height="48" viewBox="0 0 48 48" fill="none" xmlns="http://www.w3.org/2000/svg">
<path fill-rule="evenodd" clip-rule="evenodd" d="M38 24C38 31.732 31.732 38 24 38C16.268 38 10 31.732 10 24C10 16.268 16.268 10 24 10C31.732 10 38 16.268 38 24ZM40 24C40 32.8366 32.8366 40 24 40C15.1634 40 8 32.8366 8 24C8 15.1634 15.1634 8 24 8C32.8366 8 40 15.1634 40 24ZM31.2427 28.2426C28.8995 30.5858 25.1005 30.5858 22.7574 28.2426C20.4142 25.8995 20.4142 22.1005 22.7574 19.7574C25.1005 17.4142 28.8995 17.4142 31.2427 19.7574L32.6569 18.3431C29.5327 15.219 24.4674 15.219 21.3432 18.3431C18.219 21.4673 18.219 26.5327 21.3432 29.6569C24.4674 32.781 29.5327 32.781 32.6569 29.6569L31.2427 28.2426ZM15 21L15 31H17V21H15ZM17.5 18.5C17.5 19.3284 16.8284 20 16 20C15.1716 20 14.5 19.3284 14.5 18.5C14.5 17.6716 15.1716 17 16 17C16.8284 17 17.5 17.6716 17.5 18.5Z" fill="#333333"/>
</svg>
